X:1
T:Title
%%score ( 1 2 ) { 3 | 4 }
L:1/8
Q:1/4=86
M:4/4
K:Eb
V:1 treble nm="Grand Piano, Soprano"
V:2 treble 
V:3 bass nm="Choir Pad, A Little Human Kindness"
V:4 bass 
V:1
 E[EG][EG][EG] [FA][GB][GB][GB] | [GB][Ac][ce][Bd] [Ac] [GB]3 | [Gc][DA][DA][DA] [FB][EG][EG][EG] | %3
w: By~Charles~Hutchinson~Gabriel * * * * * * *|||
 [_DB][=DF][DB][Ec] [Fd] [DB]3 | E[EG][EG][EG] [FA][GB][GB][GB] | [GB][Ac][ce][Bd] [Ac] [GB]3 | %6
w: |||
 [GB][F=A][F_A][E=A] [DB][Fc][F=B][Fc] | [Fe] [Fd]2 [Ec]- [Ec] [DB]3 | %8
w: ||
 [AB][Ge][Gd][Gc] [GB][Gc][GB][FA] | [EG][DB][B,D][B,D] [B,D] [B,D]3 | %10
w: ||
 [AB][Ad][Ac][GB] [FA][Ac][GB][FA] | z B2 B- B/ z/ z z2 | [GB][Ge][Gd][Gc] [GB][Gc][GB][FA] | %13
w: |||
 [EG][FA][EG][DF] E [Ec]3 | [Fc][FB][FB][Fc] [Fd][Ee][EB][Ec] | [EA] [EG]2 [DF]- [DF] E3- | %16
w: |||
 E4 z4 |] %17
w: |
V:2
 x8 | x8 | x8 | x8 | x8 | x8 | x8 | x8 | x8 | x8 | x8 | [DF]EEA A [GB]3 | x8 | x8 | x8 | x8 | x8 |] %17
V:3
 G,B,B,B, B,[K:treble]EEE | EEEE E E3 | E[K:bass]B,B,B, B,B,B,B, | B,B,B,=A, A, B,3 | %4
 G,B,B,B, B,[K:treble]EEE | EEEE E E3 | EE[K:bass]=B,C _B,=A,_A,=A, | C B,2 =A,- A, B,3 | %8
 B,B,B,[K:treble]E EEB,B, | B,A,A,A, A, B,3 | B,B,B,B, B,B,B,B, | B,[K:treble]EED D E3 | %12
 CB,B,E EE[K:bass]B,B, | B,B,B,B, B, A,3 | EDDC B,B,EE | C[K:bass] B,2 A,- A, G,3- | G,4 z4 |] %17
V:4
 E,E,E,E, E,E,E,E, | E,A,A,A, A, E,3 | E,F,F,F, D,E,E,E, | =E,F,F,F, F, B,,3 | E,E,E,E, E,E,E,E, | %5
 E,A,A,A, A, E,3 | E,F,F,F, F,F,F,F, | F, F,2 F,- F, B,,3 | z E,E,E, E,E,E,E, | %9
 E,F,B,,D, F, [B,,A,]3 | z B,,B,,B,, B,,B,,B,,B,, | A,G,G,F, B,, E,3 | E,E,E,E, E,E,E,E, | %13
 E,E,E,F, .G,2 z2 | =A,B,B,A, _A,G,G,A, | .A,2 z B,,- B,, E,3- | E,4 z4 |] %17

